docs/assets/img/facebook.svg

<svg height="20" viewBox="0 0 20 20" width="20" xmlns="http://www.w3.org/2000/svg"><path d="m9.9304 0c-5.4756 0-9.9304 4.4548-9.9304 9.9304 0 5.4752 4.4548 9.9304 9.9304 9.9304 5.4752 0 9.9304-4.4552 9.9304-9.9304 0-5.4756-4.4544-9.9304-9.9304-9.9304zm2.4696 10.28h-1.6156v5.7584h-2.394s0-3.1464 0-5.7584h-1.138v-2.0352h1.138v-1.3164c0-.9428.448-2.416 2.416-2.416l1.774.0068v1.9756s-1.078 0-1.2876 0-.5076.1048-.5076.5544v1.196h1.824z" fill="#fff" opacity=".9"/></svg>

<svg height="20" viewBox="0 0 20 20" width="20" xmlns="http://www.w3.org/2000/svg"><path d="M9.93 0C4.455 0 0 4.455 0 9.93c0 5.476 4.455 9.93 9.93 9.93 5.476 0 9.93-4.454 9.93-9.93C19.86 4.455 15.407 0 9.93 0zm2.47 10.28h-1.616v5.758H8.39V10.28H7.252V8.245H8.39V6.928c0-.942.448-2.416 2.416-2.416l1.774.007v1.976h-1.287c-.21 0-.508.105-.508.554v1.196h1.824z" fill="#fff" opacity=".9"/></svg>
